packages/core/assets/Icons/remove.svg

<svg viewBox="0 0 20 20" fill="none" xmlns="http://www.w3.org/2000/svg">
<path d="M4.99999 10.8334C4.76388 10.8334 4.56596 10.7535 4.40624 10.5938C4.24652 10.434 4.16666 10.2361 4.16666 10C4.16666 9.76391 4.24652 9.56599 4.40624 9.40627C4.56596 9.24655 4.76388 9.16669 4.99999 9.16669H15C15.2361 9.16669 15.434 9.24655 15.5937 9.40627C15.7535 9.56599 15.8333 9.76391 15.8333 10C15.8333 10.2361 15.7535 10.434 15.5937 10.5938C15.434 10.7535 15.2361 10.8334 15 10.8334H4.99999Z" fill="currentColor"/>
</svg>

<svg xmlns="http://www.w3.org/2000/svg" width="20" height="20" fill="none" viewBox="0 0 20 20">
  <path fill="#201F1F" d="M5 10.833a.806.806 0 0 1-.594-.24.807.807 0 0 1-.24-.593c0-.236.08-.434.24-.594.16-.16.358-.24.594-.24h10c.236 0 .434.08.594.24.16.16.24.358.24.594s-.08.434-.24.594a.806.806 0 0 1-.594.24H5Z"/>
</svg>
